_includes/icons/color-wish-list.svg

<svg fill="#666" height="50" viewBox="0 0 48 48" width="50" xmlns="http://www.w3.org/2000/svg"><path d="m40 45h-32v-42h22l10 10z" fill="#90caf9"/><path d="m38.5 14h-9.5v-9.5z" fill="#e1f5fe"/><g fill="#1976d2"><path d="m18 23h16v2h-16z"/><path d="m18 19h16v2h-16z"/><path d="m14 19h2v2h-2z"/><path d="m14 23h2v2h-2z"/><path d="m14 35h2v2h-2z"/><path d="m14 27h2v2h-2z"/><path d="m14 31h2v2h-2z"/><path d="m34 27v1.26c-.65-.17-1.32-.26-2-.26-1.4 0-2.71.36-3.86 1h-10.14v-2z"/><path d="m24.08 37h-6.08v-2h6.06c-.04.33-.06.66-.06 1s.02.67.08 1z"/><path d="m25.77 31c-.49.6-.89 1.27-1.18 2h-6.59v-2z"/></g><path d="m42 30c-2.1 0-3.9 1.1-5 2.7-1.1-1.6-2.9-2.7-5-2.7-3.3 0-6 2.7-6 6 0 6 11 12 11 12s11-6 11-12c0-3.3-2.7-6-6-6" fill="#ff3d00"/></svg>

<svg xmlns="http://www.w3.org/2000/svg" viewBox="0 0 48 48" width="50" height="50" fill="#666"><path fill="#90caf9" d="M40 45L8 45 8 3 30 3 40 13z"/><path fill="#e1f5fe" d="M38.5 14L29 14 29 4.5z"/><path fill="#1976d2" d="M18 23H34V25H18z"/><path fill="#1976d2" d="M18 19H34V21H18z"/><path fill="#1976d2" d="M14 19H16V21H14z"/><path fill="#1976d2" d="M14 23H16V25H14z"/><path fill="#1976d2" d="M14 35H16V37H14z"/><path fill="#1976d2" d="M14 27H16V29H14z"/><path fill="#1976d2" d="M14 31H16V33H14z"/><path d="M34,27v1.26C33.35,28.09,32.68,28,32,28c-1.4,0-2.71,0.36-3.86,1H18v-2H34z" fill="#1976d2"/><path d="M24.08,37H18v-2h6.06C24.02,35.33,24,35.66,24,36C24,36.34,24.02,36.67,24.08,37z" fill="#1976d2"/><path d="M25.77,31c-0.49,0.6-0.89,1.27-1.18,2H18v-2H25.77z" fill="#1976d2"/><path d="M42,30c-2.1,0-3.9,1.1-5,2.7c-1.1-1.6-2.9-2.7-5-2.7c-3.3,0-6,2.7-6,6c0,6,11,12,11,12s11-6,11-12 C48,32.7,45.3,30,42,30" fill="#ff3d00"/></svg>
